icons/perlm.svg

<svg width="16" height="16" viewBox="0 0 16 16" fill="none" xmlns="http://www.w3.org/2000/svg">
<path fill-rule="evenodd" clip-rule="evenodd" d="M7.89484 2.30535C8.06362 3.14925 8.17189 5.1813 7.89484 6.43192C7.09821 10.0279 7.07268 12.9994 9.60438 14.0121C12.1361 15.0248 14.5922 11.8717 13.7574 9.34718C12.9869 7.0172 11.4017 6.08939 10.5922 5.61555C10.5246 5.57598 10.4624 5.53957 10.4065 5.50578C10.1298 5.33841 9.8454 5.18043 9.58652 5.03664C9.16726 4.80378 8.81507 4.60817 8.67153 4.47028C8.62057 4.19065 8.58276 3.90566 8.54715 3.63735C8.43144 2.76536 8.33909 2.0694 7.89484 2.30535ZM9.0541 5.91507C10.5582 6.60341 12.7224 8.29586 12.7224 10.2965C12.7224 12.2971 11.5462 12.8067 10.6857 13.0277C11.1016 12.2464 11.4488 11.3862 11.1191 9.40767C10.8851 8.0037 10.1708 7.19043 9.40159 6.31455C9.28651 6.18352 9.17021 6.05109 9.0541 5.91507Z" fill="#61C5BA"/>
<path d="M7.44527 4.99685C7.83624 2.96365 7.37304 1.25504 7.21013 1.09213C6.88675 1.18454 6.98676 1.34678 7.01969 1.5501C7.17726 2.52289 7.12437 2.99305 7.12437 3.74823C7.12437 5.70323 4.8693 7.13475 4.6041 8.99129C4.42994 10.2105 4.50771 11.258 5.43627 12.431C6.36483 13.604 8.22721 13.7619 7.44527 13.1754C6.66332 12.5889 5.78363 11.3491 5.78363 9.99978C5.78363 8.04816 6.95655 7.53835 7.44527 4.99685Z" fill="#61C5BA"/>
<path d="M6.2246 5.12425C6.75278 4.44936 6.77121 3.12526 6.67951 2.54449C6.44912 2.54449 6.55152 3.21941 6.35177 3.86689C6.08428 4.73393 5.66429 5.09693 5.14145 5.46626C4.08213 6.21457 2.24899 8.12735 2.10039 9.70303C2.05331 10.2023 1.96923 11.6249 3.04019 12.9691C4.30822 14.5606 7.22811 14.3432 6.752 14.1308C4.91026 13.3091 3.72229 12.488 3.44207 10.6043C3.11196 8.38523 5.56437 5.96786 6.2246 5.12425Z" fill="#61C5BA"/>
</svg>

<svg xmlns="http://www.w3.org/2000/svg" width="16" height="16" fill="none"><path fill="#61C5BA" fill-rule="evenodd" d="M7.895 2.305c.169.844.277 2.876 0 4.127-.797 3.596-.822 6.567 1.71 7.58 2.531 1.013 4.987-2.14 4.152-4.665-.77-2.33-2.355-3.258-3.165-3.731l-.186-.11a25.597 25.597 0 0 0-.82-.47c-.419-.232-.77-.428-.914-.566-.051-.28-.09-.564-.125-.833-.116-.872-.208-1.568-.652-1.332Zm1.16 3.61c1.503.688 3.667 2.38 3.667 4.381 0 2.001-1.176 2.51-2.036 2.732.416-.782.763-1.642.433-3.62-.234-1.404-.948-2.218-1.717-3.093a37.41 37.41 0 0 1-.348-.4Z" clip-rule="evenodd"/><path fill="#61C5BA" d="M7.445 4.997c.391-2.033-.072-3.742-.235-3.905-.323.093-.223.255-.19.458.157.973.104 1.443.104 2.198 0 1.955-2.255 3.387-2.52 5.243-.174 1.22-.096 2.267.832 3.44.929 1.173 2.791 1.33 2.01.744C6.662 12.59 5.783 11.35 5.783 10c0-1.952 1.173-2.462 1.661-5.003Z"/><path fill="#61C5BA" d="M6.225 5.124c.528-.675.546-1.999.455-2.58-.23 0-.128.675-.328 1.323-.268.867-.688 1.23-1.21 1.6-1.06.748-2.893 2.66-3.042 4.236-.047.5-.13 1.922.94 3.266 1.268 1.592 4.188 1.374 3.712 1.162-1.842-.822-3.03-1.643-3.31-3.527-.33-2.219 2.122-4.636 2.783-5.48Z"/></svg>
